icons/medical_advice.svg

<svg width="48" height="48" viewBox="0 0 48 48" fill="none" xmlns="http://www.w3.org/2000/svg">
<path fill-rule="evenodd" clip-rule="evenodd" d="M34 4C28.4772 4 24 8.47715 24 14V23C24 23.5523 24.4477 24 25 24H34C39.5228 24 44 19.5228 44 14C44 8.47715 39.5228 4 34 4ZM26 14C26 9.58172 29.5817 6 34 6C38.4183 6 42 9.58172 42 14C42 18.4183 38.4183 22 34 22H26V14ZM7 11.7778C7 11.3523 7.35228 11 7.77778 11H14C14.4255 11 14.7778 11.3523 14.7778 11.7778C14.7778 14.1042 15.1496 16.3405 15.8388 18.4298C15.9251 18.7108 15.8609 19.0093 15.6396 19.2307L11.215 23.6552L11.5443 24.3024C14.201 29.5236 18.479 33.7819 23.6951 36.4544L24.3433 36.7865L28.7693 32.3604C28.9802 32.1496 29.2914 32.0836 29.5512 32.1727L29.5619 32.1762C31.654 32.8673 33.9109 33.24 36.2222 33.24C36.6477 33.24 37 33.5923 37 34.0178V40.2222C37 40.6477 36.6477 41 36.2222 41C20.0812 41 7 27.9188 7 11.7778ZM7.77778 9C6.24772 9 5 10.2477 5 11.7778C5 29.0234 18.9766 43 36.2222 43C37.7523 43 39 41.7523 39 40.2222V34.0178C39 32.4877 37.7523 31.24 36.2222 31.24C34.1263 31.24 32.0827 30.9021 30.1939 30.2787C29.2107 29.9442 28.1027 30.1986 27.3551 30.9462L23.9665 34.3349C19.6228 31.9543 16.0291 28.3731 13.6638 24.0349L17.0538 20.6449C17.8265 19.8721 18.0474 18.7865 17.7451 17.8246L17.7429 17.8177L17.7406 17.8108C17.1161 15.9202 16.7778 13.8927 16.7778 11.7778C16.7778 10.2477 15.5301 9 14 9H7.77778ZM29 13H33V9H35V13H39V15H35V19H33V15H29V13Z" fill="black"/>
</svg>

<svg
  xmlns="http://www.w3.org/2000/svg"
  width="24"
  height="24"
  viewBox="0 0 24 24"
  fill="none"
  stroke="currentColor"
  stroke-width="2"
  stroke-linecap="round"
  stroke-linejoin="round"
>
  <path
    fill-rule="evenodd"
    d="M34 4c-5.523 0-10 4.477-10 10v9a1 1 0 0 0 1 1h9c5.523 0 10-4.477 10-10S39.523 4 34 4m-8 10a8 8 0 1 1 8 8h-8zM7 11.778c0-.426.352-.778.778-.778H14c.425 0 .778.352.778.778 0 2.326.372 4.562 1.06 6.652a.78.78 0 0 1-.198.8l-4.425 4.425.33.647c2.656 5.222 6.934 9.48 12.15 12.152l.648.332 4.426-4.426a.77.77 0 0 1 .782-.187l.01.003a21.3 21.3 0 0 0 6.661 1.064c.426 0 .778.352.778.778v6.204a.783.783 0 0 1-.778.778C20.082 41 7 27.919 7 11.778M7.778 9A2.783 2.783 0 0 0 5 11.778C5 29.023 18.977 43 36.222 43A2.783 2.783 0 0 0 39 40.222v-6.204a2.783 2.783 0 0 0-2.778-2.778 19.3 19.3 0 0 1-6.028-.961 2.77 2.77 0 0 0-2.839.667l-3.389 3.389a25.94 25.94 0 0 1-10.302-10.3l3.39-3.39a2.78 2.78 0 0 0 .691-2.82l-.002-.007-.002-.007a19.2 19.2 0 0 1-.963-6.033A2.783 2.783 0 0 0 14 9zM29 13h4V9h2v4h4v2h-4v4h-2v-4h-4z"
    clip-rule="evenodd"
  />
</svg>
